src/next/cmd/32/attributepagesize.svg

<svg enable-background="new 0 0 128 128" height="32" viewBox="0 0 32 32" width="32" xmlns="http://www.w3.org/2000/svg" xmlns:xlink="http://www.w3.org/1999/xlink"><linearGradient id="a" gradientUnits="userSpaceOnUse" x1="42" x2="72.138878" y1="118.03125" y2="5.551427"><stop offset="0" stop-color="#084775"/><stop offset="1" stop-color="#084775" stop-opacity="0"/></linearGradient><radialGradient id="b" cx="137.56522" cy="141.40741" gradientTransform="matrix(.9787234 0 0 .9818182 13.361704 1.163637)" gradientUnits="userSpaceOnUse" r="139.55859"><stop offset="0" stop-color="#cccdcf"/><stop offset=".11366145" stop-color="#e0e0e1"/><stop offset=".20296694" stop-color="#f2f2f2"/><stop offset=".2363" stop-color="#fafafa"/><stop offset=".2722" stop-color="#fff"/><stop offset=".5313" stop-color="#fafafa"/><stop offset=".8449" stop-color="#ebecec"/><stop offset="1" stop-color="#e1e2e3"/></radialGradient><radialGradient id="c" cx="114" cy="112.3047" gradientUnits="userSpaceOnUse" r="139.5585"><stop offset="0" stop-color="#fff"/><stop offset=".1737" stop-color="#f7f7f7"/><stop offset=".20990001" stop-color="#f1f1f1"/><stop offset=".2435" stop-color="#fafcfd"/><stop offset=".2722" stop-color="#fff"/></radialGradient><filter id="d"><feGaussianBlur stdDeviation="1.0394514"/></filter><filter id="e"><feGaussianBlur stdDeviation=".50063244"/></filter><filter id="f"><feGaussianBlur stdDeviation="1.2346784"/></filter><clipPath id="g"><path d="m-23.029324-146.61201c-5.531616-.24083-10.64527 3.53552-12 8.96875-.000021.0104-.000021.0208 0 .0312l-2.8125 11.40625h-6.03125c-6.441349 0-11.84375 5.4024-11.84375 11.84375v8c0 5.84595 4.517586 10.626564 10.15625 11.5l-4.125 16.65625h-6.1875c-6.441349 0-11.84375 5.402402-11.84375 11.84375v8c0 5.890458 4.58168 10.71459 10.28125 11.53125l-.84375 3.4375c-1.553679 6.23113 2.382454 12.78725 8.625 14.34375l7.78125 1.9375c6.231123 1.55368 12.818494-2.3825 14.375-8.625.000021-.01042.000021-.02083 0-.03125l2.65625-10.75h14.65625l-.78125 3.125c-1.553681 6.23114 2.382455 12.78725 8.625 14.34375l7.78125 1.9375c6.213771 1.54936 12.804599-2.45209 14.34375-8.625.000021-.01042.000021-.02083 0-.03125l2.65625-10.75h9.6875c6.44135 0 11.84375-5.402396 11.84375-11.84375v-8c0-6.441353-5.4024-11.84375-11.84375-11.84375h-1.875l4.03125-16.3125h9.84375c6.44135 0 11.84375-5.402396 11.84375-11.84375v-8c0-6.44135-5.4024-11.84375-11.84375-11.84375h-2.03125l.9375-3.78125c1.55369-6.23115-2.3825-12.78724-8.625-14.34375l-7.78125-1.9375c-6.231121-1.55367-12.818487 2.38251-14.375 8.625-.000021.0104-.000021.0208 0 .0312l-2.8125 11.40625h-14.625l.9375-3.78125c1.571025-6.30072-2.431097-12.79157-8.65625-14.34375l-7.75-1.9375c-.677154-.16884-1.43324-.30275-2.375-.34375zm10.03125 52.09375h14.625l-4.03125 16.3125h-14.625z"/></clipPath><linearGradient id="h" gradientUnits="userSpaceOnUse" x1="114.65708" x2="16.000002" xlink:href="#i" y1="60.886047" y2="59.994251"/><linearGradient id="i"><stop offset="0" stop-color="#0968ef"/><stop offset="1" stop-color="#aecffc"/></linearGradient><linearGradient id="j" gradientTransform="matrix(-.49928121 0 0 .49928121 69.8402 48.01725)" gradientUnits="userSpaceOnUse" x1="113.15723" x2="-76.429474" xlink:href="#i" y1="25.786163" y2="32.000004"/><g transform="scale(.25)"><path d="m26.84 12.862069.04082 104.275861 88.27918.0272v-104.303031h-88.319996z" filter="url(#d)" opacity=".306849" transform="matrix(1.0416667 0 0 1.0357143 2.041667 -3.321534)"/><path d="m28.759999 14.793205v100.413795h84.480001v-100.413795z" filter="url(#e)" opacity=".89589" transform="matrix(1.0416667 0 0 1.0357143 2.041667 -3.321534)"/><path d="m26.84 13.827586.04082 103.310344 88.27918.0272v-103.337514h-88.319996z" filter="url(#d)" opacity=".306849" transform="matrix(1.0416667 0 0 1.0357143 2.041667 -3.321534)"/><path d="m32.000002 12v104h88.000008v-104z" fill="url(#c)"/><path d="m36.978725 16c-.539276 0-.978723.440836-.978723.981818v94.036362c0 .54197.439447.98182.978723.98182l78.334515.0242c.35564 0 .68677-.33797.68677-.69414v-94.348242c0-.540982-.43847-.981818-.97872-.981818z" fill="url(#b)"/><g fill-rule="evenodd"><path clip-path="url(#g)" d="m22.5 42.5-2.25 15.5 14-11.75zm21.75.5 12 14.625 11-.125 17.25-12.75zm50 2 9.25 12.375h6l4.5-11.375zm-83.5 46.75-2.25 13.375 14.5-10.875zm91 1.25-18 1 7.75 11.375 7.25-.5zm-31 .5-34.5.25 8.75 12.8125 10.3125-.9375z" fill="url(#a)" filter="url(#f)" transform="translate(362.57779 -69.844761)"/><path clip-path="url(#g)" d="m22.5 42.5-8.662305 12.749263 6.412305 2.750737 14-11.75zm71.75 2.5 9.25 12.375 18.02082 1.06066-7.52082-12.43566zm-83.5 46.75-10.20495127 12.66789 22.45495127-10.16789zm91 1.25-18 1 7.75 11.375 17.14949.38388z" fill="url(#a)" filter="url(#f)" opacity=".450495" transform="translate(362.57779 -69.844761)"/><g transform="matrix(0 -1 1 0 -43.99425 128)"><path d="m118.07355 61.99138-11.98275-9.98563-1.98456 1.98457 3.89376 6.00393-44 .00575v3.99425l44-.0057-3.89376 5.90345 1.98456 2.08505 11.98275-9.98563z" fill="url(#h)"/><path d="m9.926453 61.99713 11.982749-9.98563 1.984563 1.98457-3.893765 6.00393h44v3.99425l-44 .00005 3.893765 5.90345-1.984563 2.08505-11.982749-9.98563z" fill="url(#j)"/></g></g></g></svg>

<?xml version="1.0" encoding="UTF-8" standalone="no"?>
<svg
   xmlns:dc="http://purl.org/dc/elements/1.1/"
   xmlns:cc="http://creativecommons.org/ns#"
   xmlns:rdf="http://www.w3.org/1999/02/22-rdf-syntax-ns#"
   xmlns:svg="http://www.w3.org/2000/svg"
   xmlns="http://www.w3.org/2000/svg"
   xmlns:xlink="http://www.w3.org/1999/xlink"
   xmlns:sodipodi="http://sodipodi.sourceforge.net/DTD/sodipodi-0.dtd"
   xmlns:inkscape="http://www.inkscape.org/namespaces/inkscape"
   enable-background="new 0 0 128 128"
   height="32"
   viewBox="0 0 32 32"
   width="32"
   version="1.1"
   id="svg82"
   sodipodi:docname="attributepagesize.svg"
   inkscape:version="0.92.4 (unknown)"
   inkscape:export-filename="/home/rizmut/Dokumen/Rizmut/Github/libreoffice-style-karasa-jaga/build/next/cmd/32/attributepagesize.png"
   inkscape:export-xdpi="95"
   inkscape:export-ydpi="95">
  <metadata
     id="metadata88">
    <rdf:RDF>
      <cc:Work
         rdf:about="">
        <dc:format>image/svg+xml</dc:format>
        <dc:type
           rdf:resource="http://purl.org/dc/dcmitype/StillImage" />
        <dc:title></dc:title>
      </cc:Work>
    </rdf:RDF>
  </metadata>
  <defs
     id="defs86">
    <linearGradient
       inkscape:collect="always"
       xlink:href="#e"
       id="linearGradient108"
       gradientUnits="userSpaceOnUse"
       x1="42"
       y1="118.03125"
       x2="72.138878"
       y2="5.5514269" />
    <linearGradient
       inkscape:collect="always"
       xlink:href="#e"
       id="linearGradient110"
       gradientUnits="userSpaceOnUse"
       x1="42"
       y1="118.03125"
       x2="72.138878"
       y2="5.5514269" />
  </defs>
  <sodipodi:namedview
     pagecolor="#ffffff"
     bordercolor="#666666"
     borderopacity="1"
     objecttolerance="10"
     gridtolerance="10"
     guidetolerance="10"
     inkscape:pageopacity="0"
     inkscape:pageshadow="2"
     inkscape:window-width="1366"
     inkscape:window-height="714"
     id="namedview84"
     showgrid="true"
     inkscape:zoom="5.2149125"
     inkscape:cx="1.2705381"
     inkscape:cy="28.998491"
     inkscape:window-x="0"
     inkscape:window-y="28"
     inkscape:window-maximized="1"
     inkscape:current-layer="g106">
    <inkscape:grid
       type="xygrid"
       id="grid90" />
  </sodipodi:namedview>
  <radialGradient
     id="a"
     cx="137.56522"
     cy="141.40741"
     gradientTransform="matrix(0.9787234,0,0,0.9818182,13.361704,1.163637)"
     gradientUnits="userSpaceOnUse"
     r="139.55859">
    <stop
       offset="0"
       stop-color="#cccdcf"
       id="stop2" />
    <stop
       offset=".11366145"
       stop-color="#e0e0e1"
       id="stop4" />
    <stop
       offset=".20296694"
       stop-color="#f2f2f2"
       id="stop6" />
    <stop
       offset=".2363"
       stop-color="#fafafa"
       id="stop8" />
    <stop
       offset=".2722"
       stop-color="#fff"
       id="stop10" />
    <stop
       offset=".5313"
       stop-color="#fafafa"
       id="stop12" />
    <stop
       offset=".8449"
       stop-color="#ebecec"
       id="stop14" />
    <stop
       offset="1"
       stop-color="#e1e2e3"
       id="stop16" />
  </radialGradient>
  <radialGradient
     id="b"
     cx="114"
     cy="112.3047"
     gradientUnits="userSpaceOnUse"
     r="139.5585">
    <stop
       offset="0"
       stop-color="#fff"
       id="stop19" />
    <stop
       offset=".1737"
       stop-color="#f7f7f7"
       id="stop21" />
    <stop
       offset=".20990001"
       stop-color="#f1f1f1"
       id="stop23" />
    <stop
       offset=".2435"
       stop-color="#fafcfd"
       id="stop25" />
    <stop
       offset=".2722"
       stop-color="#fff"
       id="stop27" />
  </radialGradient>
  <filter
     id="c">
    <feGaussianBlur
       stdDeviation="1.0394514"
       id="feGaussianBlur30" />
  </filter>
  <filter
     id="d">
    <feGaussianBlur
       stdDeviation=".50063244"
       id="feGaussianBlur33" />
  </filter>
  <linearGradient
     id="e"
     gradientUnits="userSpaceOnUse"
     x1="42"
     x2="72.138878"
     y1="118.03125"
     y2="5.5514269">
    <stop
       offset="0"
       stop-color="#084775"
       id="stop36" />
    <stop
       offset="1"
       stop-color="#084775"
       stop-opacity="0"
       id="stop38" />
  </linearGradient>
  <linearGradient
     gradientUnits="userSpaceOnUse"
     x1="52.126926"
     x2="52.126926"
     y1="-30.362009"
     y2="-142.43341"
     id="linearGradient45">
    <stop
       offset="0"
       stop-color="#403a3a"
       id="stop41" />
    <stop
       offset="1"
       stop-color="#6a5252"
       id="stop43" />
  </linearGradient>
  <filter
     id="f">
    <feGaussianBlur
       stdDeviation="1.2346784"
       id="feGaussianBlur47" />
  </filter>
  <clipPath
     id="g">
    <path
       d="m -23.029324,-146.61201 c -5.531616,-0.24083 -10.64527,3.53552 -12,8.96875 -2.1e-5,0.0104 -2.1e-5,0.0208 0,0.0312 l -2.8125,11.40625 h -6.03125 c -6.441349,0 -11.84375,5.4024 -11.84375,11.84375 v 8 c 0,5.84595 4.517586,10.626564 10.15625,11.5 l -4.125,16.65625 h -6.1875 c -6.441349,0 -11.84375,5.402402 -11.84375,11.84375 v 8 c 0,5.890458 4.58168,10.71459 10.28125,11.53125 l -0.84375,3.4375 c -1.553679,6.23113 2.382454,12.78725 8.625,14.34375 l 7.78125,1.9375 c 6.231123,1.55368 12.818494,-2.3825 14.375,-8.625 2.1e-5,-0.01042 2.1e-5,-0.02083 0,-0.03125 l 2.65625,-10.75 h 14.65625 l -0.78125,3.125 c -1.553681,6.23114 2.382455,12.78725 8.625,14.34375 l 7.78125,1.9375 c 6.213771,1.54936 12.804599,-2.45209 14.34375,-8.625 2.1e-5,-0.01042 2.1e-5,-0.02083 0,-0.03125 l 2.65625,-10.75 h 9.6875 c 6.44135,0 11.84375,-5.402396 11.84375,-11.84375 v -8 c 0,-6.441353 -5.4024,-11.84375 -11.84375,-11.84375 h -1.875 l 4.03125,-16.3125 h 9.84375 c 6.44135,0 11.84375,-5.402396 11.84375,-11.84375 v -8 c 0,-6.44135 -5.4024,-11.84375 -11.84375,-11.84375 h -2.03125 l 0.9375,-3.78125 c 1.55369,-6.23115 -2.3825,-12.78724 -8.625,-14.34375 l -7.78125,-1.9375 c -6.231121,-1.55367 -12.818487,2.38251 -14.375,8.625 -2.1e-5,0.0104 -2.1e-5,0.0208 0,0.0312 l -2.8125,11.40625 h -14.625 l 0.9375,-3.78125 c 1.571025,-6.30072 -2.431097,-12.79157 -8.65625,-14.34375 l -7.75,-1.9375 c -0.677154,-0.16884 -1.43324,-0.30275 -2.375,-0.34375 z m 10.03125,52.09375 h 14.625 l -4.03125,16.3125 h -14.625 z"
       id="path50"
       inkscape:connector-curvature="0" />
  </clipPath>
  <linearGradient
     id="h"
     gradientUnits="userSpaceOnUse"
     x1="114.65708"
     x2="16.000002"
     xlink:href="#i"
     y1="60.886047"
     y2="59.994251" />
  <linearGradient
     id="i">
    <stop
       offset="0"
       stop-color="#0968ef"
       id="stop54" />
    <stop
       offset="1"
       stop-color="#aecffc"
       id="stop56" />
  </linearGradient>
  <linearGradient
     id="j"
     gradientTransform="matrix(-0.49928121,0,0,0.49928121,69.8402,48.01725)"
     gradientUnits="userSpaceOnUse"
     x1="113.15723"
     x2="-76.429474"
     xlink:href="#i"
     y1="25.786163"
     y2="32.000004" />
  <g
     id="g106"
     transform="scale(0.25)">
    <path
       id="path60"
       transform="matrix(1.0416667,0,0,1.0357143,2.041667,-3.321534)"
       d="m 26.84,12.862069 0.04082,104.275861 88.27918,0.0272 V 12.862099 H 26.840004 Z"
       inkscape:connector-curvature="0"
       style="opacity:0.30684904;filter:url(#c)" />
    <path
       id="path62"
       transform="matrix(1.0416667,0,0,1.0357143,2.041667,-3.321534)"
       d="M 28.759999,14.793205 V 115.207 H 113.24 V 14.793205 Z"
       inkscape:connector-curvature="0"
       style="opacity:0.89589;filter:url(#d)" />
    <path
       id="path64"
       transform="matrix(1.0416667,0,0,1.0357143,2.041667,-3.321534)"
       d="m 26.84,13.827586 0.04082,103.310344 88.27918,0.0272 V 13.827616 H 26.840004 Z"
       inkscape:connector-curvature="0"
       style="opacity:0.30684904;filter:url(#c)" />
    <path
       id="path66"
       d="M 32.000002,12 V 116 H 120.00001 V 12 Z"
       style="fill:url(#b)"
       inkscape:connector-curvature="0" />
    <path
       id="path68"
       d="m 36.978725,16 c -0.539276,0 -0.978723,0.440836 -0.978723,0.981818 v 94.036362 c 0,0.54197 0.439447,0.98182 0.978723,0.98182 l 78.334515,0.0242 c 0.35564,0 0.68677,-0.33797 0.68677,-0.69414 V 16.981818 C 116.00001,16.440836 115.56154,16 115.02129,16 Z"
       style="fill:url(#a)"
       inkscape:connector-curvature="0" />
    <g
       id="g80"
       style="fill-rule:evenodd">
      <path
         id="path70"
         transform="translate(362.57779,-69.844761)"
         d="m 22.5,42.5 -2.25,15.5 14,-11.75 z m 21.75,0.5 12,14.625 11,-0.125 17.25,-12.75 z m 50,2 9.25,12.375 h 6 L 114,46 Z M 10.75,91.75 8.5,105.125 23,94.25 Z m 91,1.25 -18,1 7.75,11.375 7.25,-0.5 z m -31,0.5 -34.5,0.25 8.75,12.8125 10.3125,-0.9375 z"
         clip-path="url(#g)"
         style="fill:url(#linearGradient108);filter:url(#f)"
         inkscape:connector-curvature="0" />
      <path
         id="path72"
         transform="translate(362.57779,-69.844761)"
         d="M 22.5,42.5 13.837695,55.249263 20.25,58 34.25,46.25 Z M 94.25,45 103.5,57.375 121.52082,58.43566 114,46 Z M 10.75,91.75 0.54504873,104.41789 23,94.25 Z m 91,1.25 -18,1 7.75,11.375 17.14949,0.38388 z"
         clip-path="url(#g)"
         style="opacity:0.45049504;fill:url(#linearGradient110);filter:url(#f)"
         inkscape:connector-curvature="0" />
      <g
         id="g78"
         transform="rotate(-90,42.002875,85.997125)">
        <path
           id="path74"
           d="M 118.07355,61.99138 106.0908,52.00575 104.10624,53.99032 108,59.99425 64,60 v 3.99425 l 44,-0.0057 -3.89376,5.90345 1.98456,2.08505 11.98275,-9.98563 z"
           style="fill:url(#h)"
           inkscape:connector-curvature="0" />
        <path
           id="path76"
           d="M 9.926453,61.99713 21.909202,52.0115 23.893765,53.99607 20,60 h 44 v 3.99425 l -44,5e-5 3.893765,5.90345 -1.984563,2.08505 -11.982749,-9.98563 z"
           style="fill:url(#j)"
           inkscape:connector-curvature="0" />
      </g>
    </g>
  </g>
</svg>
